public/img/top/link-1.svg

<svg fill="none" height="150" viewBox="0 0 150 150" width="150" xmlns="http://www.w3.org/2000/svg" xmlns:xlink="http://www.w3.org/1999/xlink"><mask id="a" height="150" maskUnits="userSpaceOnUse" width="150" x="0" y="0"><path d="m0 0h150v150h-150z" fill="#d9d9d9"/></mask><g mask="url(#a)"><path d="m74.9749 8.31836 53.8621 31.09754v62.1951l-53.8621 31.098-53.8626-31.098v-62.1951z" fill="#f0f5f6"/><g stroke="#003"><path clip-rule="evenodd" d="m75.9142 48.2127 19.4419 10.9214c.5231.2938.8468.847.8468 1.4468v21.765c0 .5998-.3237 1.153-.8468 1.4468l-19.4419 10.9214c-.5047.2836-1.1208.2836-1.6255 0l-19.442-10.9214c-.523-.2938-.8467-.847-.8467-1.4468v-21.765c0-.5998.3237-1.153.8467-1.4468l19.442-10.9214c.5047-.2836 1.1208-.2836 1.6255 0z" fill="#fff" fill-rule="evenodd" stroke-width=".925376"/><path d="m75.4307 94.5123v-22.3902" stroke-linecap="round" stroke-width=".925376"/><path d="m54.3574 60.9268 21.0732 11.1951" stroke-linecap="round" stroke-width=".925376"/><path d="m95.8451 60.9268-20.4916 10.8861" stroke-linecap="round" stroke-width=".925376"/><path clip-rule="evenodd" d="m80.0188 59.8545-4.5791 2.4402c-.1939.1034-.4266.1032-.6203-.0004l-4.5622-2.4402c-.3207-.1716-.4416-.5706-.27-.8913.0578-.1082.1448-.1981.251-.2595l4.5622-2.6383c.2036-.1177.4546-.1179.6584-.0005l4.5791 2.6383c.3151.1815.4234.5842.2418.8993-.0616.1069-.152.1944-.2609.2524z" fill="#00e599" fill-rule="evenodd" stroke-width=".845556"/></g></g></svg>

<svg width="150" height="150" viewBox="0 0 150 150" fill="none" xmlns="http://www.w3.org/2000/svg">
<mask id="mask0_555_789" style="mask-type:alpha" maskUnits="userSpaceOnUse" x="0" y="0" width="150" height="150">
<rect width="150" height="150" fill="#D9D9D9"/>
</mask>
<g mask="url(#mask0_555_789)">
<path d="M74.9749 8.31836L128.837 39.4159V101.611L74.9749 132.709L21.1123 101.611V39.4159L74.9749 8.31836Z" fill="#F0F5F6"/>
<path fill-rule="evenodd" clip-rule="evenodd" d="M75.9142 48.2127L95.3561 59.1341C95.8792 59.4279 96.2029 59.9811 96.2029 60.5809V82.3459C96.2029 82.9457 95.8792 83.4989 95.3561 83.7927L75.9142 94.7141C75.4095 94.9977 74.7934 94.9977 74.2887 94.7141L54.8467 83.7927C54.3237 83.4989 54 82.9457 54 82.3459V60.5809C54 59.9811 54.3237 59.4279 54.8467 59.1341L74.2887 48.2127C74.7934 47.9291 75.4095 47.9291 75.9142 48.2127Z" fill="white" stroke="#000033" stroke-width="0.925376"/>
<path d="M75.4307 94.5123V72.1221" stroke="#000033" stroke-width="0.925376" stroke-linecap="round"/>
<path d="M54.3574 60.9268L75.4306 72.1219" stroke="#000033" stroke-width="0.925376" stroke-linecap="round"/>
<path d="M95.8451 60.9268L75.3535 71.8129" stroke="#000033" stroke-width="0.925376" stroke-linecap="round"/>
<path fill-rule="evenodd" clip-rule="evenodd" d="M80.0188 59.8545L75.4397 62.2947C75.2458 62.3981 75.0131 62.3979 74.8194 62.2943L70.2572 59.8541C69.9365 59.6825 69.8156 59.2835 69.9872 58.9628C70.045 58.8546 70.132 58.7647 70.2382 58.7033L74.8004 56.065C75.004 55.9473 75.255 55.9471 75.4588 56.0645L80.0379 58.7028C80.353 58.8843 80.4613 59.287 80.2797 59.6021C80.2181 59.709 80.1277 59.7965 80.0188 59.8545Z" fill="#00E599" stroke="#000033" stroke-width="0.845556"/>
</g>
</svg>
